X:1
T:Boströmvalsen efter G. Jernberg
R:Vals
Z:ABC-transkribering av Robert Boström 090503
D: Kvickrot - Modern folkmusik
M:3/4
L:1/8
K:F
efa|:c3 d c2|(3BcB Ac fa|c3 d c2|B2A2G2|
F3 G F2|(3FGF E2F2|G2 c3 d|c2 =Bc dc|
B3 c BA|G2G2G2|g3a g2|f2 e2 d2|
c4 =Bc|dc =Bc de|f2c2a2|1f3efa:|2f4 z2+fine+||
|:eg ge e2|fa af f2|fb bg g2|fa af f2|
g3/2a/2 gf ed|cd cB AB|c3/2d/2 c=B cf|a2 fg fe|
d2 Bd fd|c2AF Ac|d2 =BG Bd|g2 ec de|
f2c2a2|f4z2:|

